X:1
T:Why I Sing
T:Why I Sing
T:Charles Hutchinson Gabriel
T:Ida Clarkson Lewis, 1894
T:Public Domain Courtesy of the Cyber Hymnal™
C:Charles Hutchinson Gabriel
Z:Public Domain
Z:Courtesy of the Cyber Hymnal™
%%score ( 1 2 ) ( 3 4 )
L:1/8
Q:1/4=110
M:4/4
K:G
V:1 treble 
V:2 treble 
V:3 bass 
V:4 bass 
V:1
 ([B,G][CA]) | [DB]3 [DB] ([Ec][DB]) (AG) | [EG]4 [Ec]2 (EG) | [B,D]2 [B,G]2 [DB]2 [Dd]2 | %4
w: 1.~I *|sing be- cause * I *|love Him— Be- *|cause to earth He|
w: 2.~I *|sing be- cause * I *|love Him; From *|sin He set me|
w: 3.~I *|sing be- cause * I *|love Him, For *|keep- ing me in|
 [DA]6 [Dc]2 | [DB]3 [DB] ([Ec][DB]) (AG) | [EG]4 [Ec]2 (EG) | [B,D]2 [B,G]2 (BA) (GF) | [DG]6 || %9
w: came All|those to save * who *|trust Him, From *|end- less death * and *|shame.|
w: free; He|taught my soul * to *|praise Him— Filled *|it with mel- * o- *|dy.|
w: peace; Un-|til my eyes * be- *|hold Him, My *|song shall ne- * ver *|cease.|
"^Refrain" [Gd]2 | d4- dd[GB][GB] | d4 [Ad]2 [Fd]2 | [Gd]2 d2 d2 ^c2 | d4- [Gd]2 [Dc]2 | %14
w: |||||
w: I|sing * be- cause I|love Him, Be-|cause He died for|me; For this|
w: |||||
 [DB]3 [DB] ([Ec][DB]) (AG) | [EG]4 [Ec]2 (EG) | [B,D]2 [B,G]2 (BA) (GF) | [DG]6 |] %18
w: ||||
w: * I shall * a- *|dore Him Through *|all e- ter- * ni- *|ty.|
w: ||||
V:2
 x2 | x6 D2 | x6 C2 | x8 | x8 | x6 D2 | x6 C2 | x4 D2 D2 | x6 || x2 | (BAGA B2) x2 | (AGFG) x4 | %12
 x2 (AG) (FF) (EG) | F2 F2 x4 | x6 D2 | x6 C2 | x4 D2 D2 | x6 |] %18
V:3
 [G,,G,]2 | [G,,G,]3 [G,,G,] [G,,G,]2 ([A,,F,][B,,G,]) | [C,C]4 [C,G,]2 G,2 | %3
w: ~|~ ~ ~ ~ *|~ ~ ~|
 G,2 G,2 G,2 [B,,G,]2 | [D,F,]6 [D,F,]2 | [G,,G,]3 [G,,G,] [G,,G,]2 ([A,,F,][B,,G,]) | %6
w: ~ ~ ~ ~|~ ~|~ ~ ~ ~ *|
 [C,C]4 [C,G,]2 G,2 | G,2 G,2 (G,C) (B,A,) | [G,,B,]6 || [G,B,]2 | %10
w: ~ ~ ~|~ ~ ~ * ~ *|~|I|
 [G,D][G,C][G,B,][G,C] [G,D]2 [G,D][G,D] | [D,C][D,B,][D,A,][D,B,] [D,C]2 [D,A,]2 | %12
w: sing be- cause I love Him— Be-|cause He died for me; I|
 [G,B,]2 [F,C][G,B,] A,A,[A,,A,][A,,A,] | [D,A,]2 [C,A,]2 [B,,G,]2 [A,,F,]2 | %14
w: love Him be- cause He died for|me, for me; *|
 [G,,G,]3 [A,,G,] [A,,G,]2 ([A,,F,][B,,G,]) | [C,C]4 [C,G,]2 G,2 | G,2 G,2 (G,C) (B,A,) | %17
w: |||
 [G,,B,]6 |] %18
w: |
V:4
 x2 | x8 | x6 (C,E,) | G,2 G,2 G,2 x2 | x8 | x8 | x6 (C,E,) | G,2 G,2 D,2 D,2 | x6 || x2 | x8 | %11
 x8 | x4 A,A, x2 | x8 | x8 | x6 (C,E,) | G,2 G,2 D,2 D,2 | x6 |] %18

